packages/icons/src/letter-case-uppercase.svg

<svg width="15" height="15" viewBox="0 0 15 15" fill="none" xmlns="http://www.w3.org/2000/svg">
  <path
    fill-rule="evenodd"
    clip-rule="evenodd"
    d="M3.6255 2.75C3.83478 2.75 4.02192 2.88034 4.09448 3.07664L7.16985 11.3962C7.2656 11.6552 7.13324 11.9428 6.87423 12.0386C6.61522 12.1343 6.32763 12.002 6.23188 11.7429L5.22387 9.01603H2.02712L1.01911 11.7429C0.923362 12.002 0.635774 12.1343 0.376762 12.0386C0.117749 11.9428 -0.0146052 11.6552 0.0811401 11.3962L3.15651 3.07664C3.22908 2.88034 3.41621 2.75 3.6255 2.75ZM3.6255 4.69207L4.90966 8.16603H2.34133L3.6255 4.69207ZM11.3719 2.75C11.5811 2.75 11.7683 2.88034 11.8408 3.07664L14.9162 11.3962C15.012 11.6552 14.8796 11.9428 14.6206 12.0386C14.3616 12.1343 14.074 12.002 13.9782 11.7429L12.9702 9.01603H9.77348L8.76547 11.7429C8.66972 12.002 8.38213 12.1343 8.12312 12.0386C7.86411 11.9428 7.73175 11.6552 7.8275 11.3962L10.9029 3.07664C10.9754 2.88034 11.1626 2.75 11.3719 2.75ZM11.3719 4.69207L12.656 8.16603H10.0877L11.3719 4.69207Z"
    fill="currentColor"
  />
</svg>

<svg xmlns="http://www.w3.org/2000/svg" width="15" height="15" fill="none"><path fill="currentColor" fill-rule="evenodd" d="M3.626 2.75a.5.5 0 0 1 .468.327l3.076 8.32a.5.5 0 0 1-.938.346L5.224 9.016H2.027L1.02 11.743a.5.5 0 1 1-.938-.347l3.076-8.32a.5.5 0 0 1 .469-.326m0 1.942L4.91 8.166H2.34zm7.746-1.942a.5.5 0 0 1 .469.327l3.075 8.32a.5.5 0 1 1-.938.346L12.97 9.016H9.773l-1.008 2.727a.5.5 0 1 1-.938-.347l3.076-8.32a.5.5 0 0 1 .469-.326m0 1.942 1.284 3.474h-2.568z" clip-rule="evenodd"/></svg>
